X: 25
T: Martha Campbell
R: Reel
L: 1/8
M: 2/2
K: D
"D"DEFA BFAF|DEFA BFAF|DEFA "(Bm)"BFAF|"(Em)"AFD2 y"A"E4|"D"DEFA BFAF|DEFA BdBd|
"G"ABdf- "D/F#"fafe|"Em"dB"A"AF "D"D4:||:"D"ABdd fdfd|efde fdfd|ABde "(Bm)"f2ff|
"Em"fedf "A"edBd|"D"ABde "A/C#"f2ff|"Bm"efde "D/A"f2A2|"G"abag "D/F#"fgfe|"Em"dB"A"AF "D"D4:|

